X: 43331
T: Workhouse, The
R: jig
M: 6/8
K: Gmajor
|:DED BAG|EDE cBA|Ddc BAG|EA^c d=cA|
DED BAG|EDE cBA|Ddc Bcd|1 cAF G2E:|2 cAF G2F||
|:EDE B,EG|Bef gfe|d^cd ABA|FDF AFD|
EDE B,EG|Bef gfe|d^cd d=cB|1 AGF E2D:|2 AGF G3||

